src/modules/featureInfo/components/assets/info.svg

<svg xmlns="http://www.w3.org/2000/svg" width="230.4" height="227.2"><ellipse cx="114.178" cy="115.908" rx="58.386" ry="57.239" style="opacity:.155;fill:#3599c3;fill-opacity:1;stroke-width:15.7163;paint-order:stroke fill markers"/><ellipse cx="113.78" cy="115.131" rx="76.014" ry="74.52" style="opacity:.155;fill:#3599c3;fill-opacity:1;stroke-width:20.4614;paint-order:stroke fill markers"/><ellipse cx="113.672" cy="115.505" rx="92.964" ry="91.137" style="opacity:.155;fill:#3599c3;fill-opacity:1;stroke-width:25.0239;paint-order:stroke fill markers"/><circle cx="113.676" cy="113.828" r="40.327" style="fill:#fff;fill-opacity:1;stroke:none;stroke-width:1.34619;stroke-linecap:square;stroke-linejoin:round;stroke-miterlimit:4;stroke-dasharray:none;stroke-opacity:1;paint-order:stroke fill markers"/><circle cx="113.955" cy="114.194" r="34.653" style="fill:#369dc9;fill-opacity:1;stroke:none;stroke-width:1.1568;stroke-linecap:square;stroke-linejoin:round;stroke-miterlimit:4;stroke-dasharray:none;stroke-opacity:1;paint-order:stroke fill markers"/><path d="M8.5 4.466V1.75a1.75 1.75 0 1 0-3.5 0v5.34l-1.2.24a1.5 1.5 0 0 0-1.196 1.636l.345 3.106a2.5 2.5 0 0 0 .405 1.11l1.433 2.15A1.5 1.5 0 0 0 6.035 16h6.385a1.5 1.5 0 0 0 1.302-.756l1.395-2.441a3.5 3.5 0 0 0 .444-1.389l.271-2.715a2 2 0 0 0-1.99-2.199h-.581a5 5 0 0 0-.195-.248c-.191-.229-.51-.568-.88-.716-.364-.146-.846-.132-1.158-.108l-.132.012a1.26 1.26 0 0 0-.56-.642 2.6 2.6 0 0 0-.738-.288c-.31-.062-.739-.058-1.05-.046Z" style="fill:#fff" transform="translate(82.374 117.58)scale(4.99633)"/><path d="M6.75 1a.75.75 0 0 1 .75.75V8a.5.5 0 0 0 1 0V5.467l.086-.004c.317-.012.637-.008.816.027.134.027.294.096.448.182.077.042.15.147.15.314V8a.5.5 0 1 0 1 0V6.435l.106-.01c.316-.024.584-.01.708.04.118.046.3.207.486.43.081.096.15.19.2.259V8.5a.5.5 0 0 0 1 0v-1h.342a1 1 0 0 1 .995 1.1l-.271 2.715a2.5 2.5 0 0 1-.317.991l-1.395 2.442a.5.5 0 0 1-.434.252H6.035a.5.5 0 0 1-.416-.223l-1.433-2.15a1.5 1.5 0 0 1-.243-.666l-.345-3.105a.5.5 0 0 1 .399-.546L5 8.11V9a.5.5 0 0 0 1 0V1.75A.75.75 0 0 1 6.75 1M8.5 4.466V1.75a1.75 1.75 0 1 0-3.5 0v5.34l-1.2.24a1.5 1.5 0 0 0-1.196 1.636l.345 3.106a2.5 2.5 0 0 0 .405 1.11l1.433 2.15A1.5 1.5 0 0 0 6.035 16h6.385a1.5 1.5 0 0 0 1.302-.756l1.395-2.441a3.5 3.5 0 0 0 .444-1.389l.271-2.715a2 2 0 0 0-1.99-2.199h-.581a5 5 0 0 0-.195-.248c-.191-.229-.51-.568-.88-.716-.364-.146-.846-.132-1.158-.108l-.132.012a1.26 1.26 0 0 0-.56-.642 2.6 2.6 0 0 0-.738-.288c-.31-.062-.739-.058-1.05-.046Zm2.094 2.025" style="fill:currentColor" transform="translate(78.434 112.794)scale(5.51766)"/></svg><!--MIT License-->

<?xml version="1.0" encoding="UTF-8" standalone="no"?>
<svg
   version="1.1"
   id="svg3169"
   width="230.39999"
   height="227.2"
   viewBox="0 0 230.39999 227.2"
   xmlns="http://www.w3.org/2000/svg"
   xmlns:svg="http://www.w3.org/2000/svg"
   xmlns:rdf="http://www.w3.org/1999/02/22-rdf-syntax-ns#"
   xmlns:cc="http://creativecommons.org/ns#"
   xmlns:dc="http://purl.org/dc/elements/1.1/">
  <metadata
     id="metadata3175">
    <rdf:RDF>
      <cc:Work
         rdf:about="">
        <dc:format>image/svg+xml</dc:format>
        <dc:type
           rdf:resource="http://purl.org/dc/dcmitype/StillImage" />
      </cc:Work>
    </rdf:RDF>
  </metadata>
  <defs
     id="defs3173" />
  <ellipse
     style="opacity:0.155;fill:#3599c3;fill-opacity:1;stroke-width:15.7163;paint-order:stroke fill markers"
     id="ellipse960-3-6"
     ry="57.23864"
     rx="58.385925"
     cy="115.90798"
     cx="114.178" />
  <ellipse
     style="opacity:0.155;fill:#3599c3;fill-opacity:1;stroke-width:20.4614;paint-order:stroke fill markers"
     id="ellipse960-3"
     ry="74.520477"
     rx="76.014168"
     cy="115.13148"
     cx="113.78027" />
  <ellipse
     style="opacity:0.155;fill:#3599c3;fill-opacity:1;stroke-width:25.0239;paint-order:stroke fill markers"
     id="ellipse960-3-7"
     ry="91.137306"
     rx="92.96405"
     cy="115.50454"
     cx="113.67171" />
  <circle
     r="40.326698"
     cy="113.82772"
     cx="113.67632"
     id="path817"
     style="fill:#ffffff;fill-opacity:1;stroke:none;stroke-width:1.34619;stroke-linecap:square;stroke-linejoin:round;stroke-miterlimit:4;stroke-dasharray:none;stroke-opacity:1;paint-order:stroke fill markers" />
  <circle
     r="34.653431"
     cy="114.19402"
     cx="113.95483"
     id="path817-7"
     style="fill:#369dc9;fill-opacity:1;stroke:none;stroke-width:1.1568;stroke-linecap:square;stroke-linejoin:round;stroke-miterlimit:4;stroke-dasharray:none;stroke-opacity:1;paint-order:stroke fill markers" />
  <g
     style="fill:#ffffff"
     id="g978"
     transform="matrix(4.5861886,0,0,4.5861886,80.260027,56.356737)" />
  <g
     style="fill:#ffffff"
     id="g8933"
     transform="matrix(4.9963342,0,0,4.9963342,82.374051,117.58076)">
    <path
       d="M 8.5,4.466 V 1.75 A 1.75,1.75 0 1 0 5,1.75 V 7.09 L 3.8,7.33 A 1.5,1.5 0 0 0 2.604,8.966 l 0.345,3.106 a 2.5,2.5 0 0 0 0.405,1.11 l 1.433,2.15 A 1.5,1.5 0 0 0 6.035,16 h 6.385 a 1.5,1.5 0 0 0 1.302,-0.756 l 1.395,-2.441 a 3.5,3.5 0 0 0 0.444,-1.389 L 15.832,8.699 A 2,2 0 0 0 13.842,6.5 H 13.261 A 5,5 0 0 0 13.066,6.252 C 12.875,6.023 12.556,5.684 12.186,5.536 11.822,5.39 11.34,5.404 11.028,5.428 L 10.896,5.44 A 1.26,1.26 0 0 0 10.336,4.798 2.6,2.6 0 0 0 9.598,4.51 C 9.288,4.448 8.859,4.452 8.548,4.464 Z"
       id="path8924"
       style="fill:#ffffff" />
  </g>
  <g
     style="fill:currentColor"
     id="g8842"
     transform="matrix(5.5176608,0,0,5.5176608,78.434304,112.79437)">
    <path
       d="M 6.75,1 A 0.75,0.75 0 0 1 7.5,1.75 V 8 a 0.5,0.5 0 0 0 1,0 V 5.467 L 8.586,5.463 C 8.903,5.451 9.223,5.455 9.402,5.49 9.536,5.517 9.696,5.586 9.85,5.672 9.927,5.714 10,5.819 10,5.986 V 8 a 0.5,0.5 0 1 0 1,0 V 6.435 l 0.106,-0.01 c 0.316,-0.024 0.584,-0.01 0.708,0.04 0.118,0.046 0.3,0.207 0.486,0.43 0.081,0.096 0.15,0.19 0.2,0.259 V 8.5 a 0.5,0.5 0 0 0 1,0 v -1 h 0.342 a 1,1 0 0 1 0.995,1.1 l -0.271,2.715 a 2.5,2.5 0 0 1 -0.317,0.991 l -1.395,2.442 A 0.5,0.5 0 0 1 12.42,15 H 6.035 A 0.5,0.5 0 0 1 5.619,14.777 L 4.186,12.627 A 1.5,1.5 0 0 1 3.943,11.961 L 3.598,8.856 A 0.5,0.5 0 0 1 3.997,8.31 L 5,8.11 V 9 A 0.5,0.5 0 0 0 6,9 V 1.75 A 0.75,0.75 0 0 1 6.75,1 M 8.5,4.466 V 1.75 A 1.75,1.75 0 1 0 5,1.75 V 7.09 L 3.8,7.33 A 1.5,1.5 0 0 0 2.604,8.966 l 0.345,3.106 a 2.5,2.5 0 0 0 0.405,1.11 l 1.433,2.15 A 1.5,1.5 0 0 0 6.035,16 h 6.385 a 1.5,1.5 0 0 0 1.302,-0.756 l 1.395,-2.441 a 3.5,3.5 0 0 0 0.444,-1.389 L 15.832,8.699 A 2,2 0 0 0 13.842,6.5 H 13.261 A 5,5 0 0 0 13.066,6.252 C 12.875,6.023 12.556,5.684 12.186,5.536 11.822,5.39 11.34,5.404 11.028,5.428 L 10.896,5.44 A 1.26,1.26 0 0 0 10.336,4.798 2.6,2.6 0 0 0 9.598,4.51 C 9.288,4.448 8.859,4.452 8.548,4.464 Z m 2.094,2.025"
       id="path8833" />
  </g>
</svg><!--MIT License-->
